X: 40600
T: Ton Tri
R: reel
M: 4/4
K: Gmajor
B|:BcBG BA (3GAG|FEDF E2 EB:|BcBG BAGF|GA B2 (3BAG FG|
EFGA BA G2|FEDE F2 FD|EFGA BA G2|FEDF E2 E||

